icon/cg/arrows-h-alt.svg

<svg viewBox="0 0 24 24" fill="none" xmlns="http://www.w3.org/2000/svg" height="1em" width="1em">
  <path d="M4.24267 7.75735L5.65688 9.17157L3.82842 11H20.1716L18.3431 9.17157L19.7573 7.75735L24 12L19.7572 16.2426L18.343 14.8284L20.1714 13H3.82845L5.65685 14.8284L4.24264 16.2426L0 12L4.24267 7.75735Z" fill="currentColor"/>
</svg>

<svg width="24" height="24" fill="none" xmlns="http://www.w3.org/2000/svg"><path d="m4.243 7.757 1.414 1.415L3.828 11h16.344l-1.829-1.828 1.414-1.415L24 12l-4.243 4.243-1.414-1.415L20.171 13H3.828l1.829 1.828-1.414 1.415L0 12l4.243-4.243Z" fill="currentColor"/></svg>
